static/ghost-template.svg

<?xml version="1.0" encoding="UTF-8" standalone="no"?>
<svg viewBox="0 0 1024 1024" xmlns="http://www.w3.org/2000/svg" class="ghost-svg">
  <!-- GHOST SVG TEMPLATE
       This file contains the unified ghost structure with all layers.
       Each layer is properly separated and identified for animation control.
  -->
  
  <!-- Gradient definitions for all themes -->
  <defs>
    <!-- Peach Theme Gradient (Default) -->
    <linearGradient id="peachGradient" x1="0%" y1="0%" x2="100%" y2="100%">
      <stop offset="0%" stop-color="var(--ghost-peach-start, #ff60e0)" />
      <stop offset="35%" stop-color="var(--ghost-peach-mid1, #ff82ca)" />
      <stop offset="65%" stop-color="var(--ghost-peach-mid2, #ff9a85)" />
      <stop offset="85%" stop-color="var(--ghost-peach-mid3, #ffb060)" />
      <stop offset="100%" stop-color="var(--ghost-peach-end, #ffcf40)" />
    </linearGradient>

    <!-- Mint Theme Gradient -->
    <linearGradient id="mintGradient" x1="0%" y1="0%" x2="100%" y2="100%">
      <stop offset="0%" stop-color="var(--ghost-mint-start, #0ac5ef)" />
      <stop offset="35%" stop-color="var(--ghost-mint-mid1, #22d3ed)" />
      <stop offset="65%" stop-color="var(--ghost-mint-mid2, #2dd4bf)" />
      <stop offset="85%" stop-color="var(--ghost-mint-mid3, #4ade80)" />
      <stop offset="100%" stop-color="var(--ghost-mint-end, #a3e635)" />
    </linearGradient>

    <!-- Bubblegum Theme Gradient -->
    <linearGradient id="bubblegumGradient" x1="0%" y1="0%" x2="100%" y2="100%">
      <stop offset="0%" stop-color="var(--ghost-bubblegum-start, #c026d3)" />
      <stop offset="35%" stop-color="var(--ghost-bubblegum-mid1, #a855f7)" />
      <stop offset="65%" stop-color="var(--ghost-bubblegum-mid2, #8b5cf6)" />
      <stop offset="85%" stop-color="var(--ghost-bubblegum-mid3, #6366f1)" />
      <stop offset="100%" stop-color="var(--ghost-bubblegum-end, #3b82f6)" />
    </linearGradient>

    <!-- Rainbow Theme Gradient -->
    <linearGradient id="rainbowGradient" x1="0%" y1="0%" x2="100%" y2="100%">
      <stop offset="0%" stop-color="var(--ghost-rainbow-start, #ff0080)" />
      <stop offset="25%" stop-color="var(--ghost-rainbow-mid1, #ff8c00)" />
      <stop offset="50%" stop-color="var(--ghost-rainbow-mid2, #ffed00)" />
      <stop offset="75%" stop-color="var(--ghost-rainbow-mid3, #00ff80)" />
      <stop offset="100%" stop-color="var(--ghost-rainbow-end, #00bfff)" />
    </linearGradient>
  </defs>
  
  <!-- LAYER 1: Background with Gradient Fill -->
  <g class="ghost-layer ghost-bg">
    <path class="ghost-shape" id="ghost-background" fill="url(#peachGradient)" d="M513.404419,867.481567 
      C500.638763,868.907959 488.331787,868.194336 476.009705,867.866089 
      C446.462891,867.078796 417.884583,859.610352 388.801971,855.681885 
      C370.149475,853.162231 352.112579,857.574646 334.511139,863.822144 
      C315.368408,870.616699 297.161530,879.791504 277.721497,885.828918 
      C254.681473,892.984314 231.232208,897.413452 207.021820,896.261047 
      C189.047836,895.405457 171.990540,891.317932 158.356384,878.565979 
      C147.208923,868.139954 141.529053,854.882935 139.624680,839.847839 
      C137.264587,821.214722 142.483505,803.992310 148.934418,786.895508 
      C156.505127,766.830994 164.596375,746.925598 168.849991,725.765869 
      C174.432098,697.997681 173.665695,670.337097 168.186920,642.630127 
      C163.947479,621.190674 156.486160,600.699402 150.462204,579.785400 
      C143.638535,556.094910 139.159988,532.038147 137.504852,507.372742 
      C131.064590,411.397430 157.581161,325.368225 215.925552,249.300003 
      C256.117920,196.897995 307.335602,158.445419 368.502960,133.354050 
      C400.531647,120.215607 433.768219,111.837654 468.098663,107.519447 
      C487.134308,105.125092 506.230377,104.015808 525.362000,104.827698 
      C596.538330,107.848198 662.704651,127.277710 722.209900,167.011292 
      C803.810486,221.498611 856.047241,296.743835 879.300354,392.061066 
      C884.184937,412.083374 887.114685,432.389526 888.554993,452.994354 
      C889.719971,469.660492 889.983215,486.340546 889.047058,502.913361 
      C886.752075,543.540771 877.620850,582.802795 862.444458,620.580078 
      C840.634644,674.869141 809.072632,722.769043 765.879944,762.294067 
      C714.632507,809.189697 656.007019,842.916016 587.328186,857.500854 
      C563.079834,862.650391 538.753174,867.051331 513.404419,867.481567 
    M231.830231,347.227020 
      C210.293030,395.676147 198.984055,446.071472 202.137405,499.390686 
      C203.379990,520.401123 207.011154,540.925964 212.771942,561.075439 
      C221.804901,592.669983 232.889542,623.721558 235.886505,656.807068 
      C237.528046,674.929260 238.041809,693.021240 236.125473,711.088745 
      C233.663315,734.302429 228.079376,756.867920 220.703934,778.997375 
      C216.070633,792.899231 211.026505,806.639221 204.976135,820.001709 
      C202.237274,826.050598 204.640930,829.986755 211.224380,830.599182 
      C212.216553,830.691467 213.222946,830.652954 214.222412,830.641785 
      C229.674545,830.469666 244.630646,827.182190 259.157257,822.373352 
      C278.265167,816.048035 297.069214,808.811035 316.070312,802.155701 
      C350.310822,790.162659 385.034760,785.834839 420.907745,794.570801 
      C442.249481,799.768066 464.089172,802.233215 486.075745,802.573059 
      C510.252686,802.946838 534.166016,800.326538 557.923584,795.787598 
      C608.719604,786.082764 654.687195,765.450806 695.782959,734.304016 
      C746.750122,695.675598 782.895020,645.900330 805.225037,585.981445 
      C818.084045,551.476379 824.147156,515.703613 824.386597,479.079163 
      C824.510071,460.195374 822.352417,441.325256 818.809448,422.629791 
      C806.773621,359.119690 777.563049,304.698578 731.504028,259.715424 
      C677.962280,207.424286 613.008545,178.958206 538.785400,171.496796 
      C511.977112,168.801819 485.289978,171.008865 458.802246,175.699249 
      C411.962860,183.993408 369.315247,202.284042 330.532043,229.690826 
      C287.560181,260.057526 255.228470,299.415741 231.830231,347.227020 
    z"/>
  </g>

  <!-- LAYER 2: Outline Layer -->
  <g class="ghost-layer ghost-outline">
    <path class="ghost-outline-path" id="ghost-outline" fill="#000000" opacity="1.000000" stroke="none" d="M513.404419,867.481567 
      C500.638763,868.907959 488.331787,868.194336 476.009705,867.866089 
      C446.462891,867.078796 417.884583,859.610352 388.801971,855.681885 
      C370.149475,853.162231 352.112579,857.574646 334.511139,863.822144 
      C315.368408,870.616699 297.161530,879.791504 277.721497,885.828918 
      C254.681473,892.984314 231.232208,897.413452 207.021820,896.261047 
      C189.047836,895.405457 171.990540,891.317932 158.356384,878.565979 
      C147.208923,868.139954 141.529053,854.882935 139.624680,839.847839 
      C137.264587,821.214722 142.483505,803.992310 148.934418,786.895508 
      C156.505127,766.830994 164.596375,746.925598 168.849991,725.765869 
      C174.432098,697.997681 173.665695,670.337097 168.186920,642.630127 
      C163.947479,621.190674 156.486160,600.699402 150.462204,579.785400 
      C143.638535,556.094910 139.159988,532.038147 137.504852,507.372742 
      C131.064590,411.397430 157.581161,325.368225 215.925552,249.300003 
      C256.117920,196.897995 307.335602,158.445419 368.502960,133.354050 
      C400.531647,120.215607 433.768219,111.837654 468.098663,107.519447 
      C487.134308,105.125092 506.230377,104.015808 525.362000,104.827698 
      C596.538330,107.848198 662.704651,127.277710 722.209900,167.011292 
      C803.810486,221.498611 856.047241,296.743835 879.300354,392.061066 
      C884.184937,412.083374 887.114685,432.389526 888.554993,452.994354 
      C889.719971,469.660492 889.983215,486.340546 889.047058,502.913361 
      C886.752075,543.540771 877.620850,582.802795 862.444458,620.580078 
      C840.634644,674.869141 809.072632,722.769043 765.879944,762.294067 
      C714.632507,809.189697 656.007019,842.916016 587.328186,857.500854 
      C563.079834,862.650391 538.753174,867.051331 513.404419,867.481567 
    M231.830231,347.227020 
      C210.293030,395.676147 198.984055,446.071472 202.137405,499.390686 
      C203.379990,520.401123 207.011154,540.925964 212.771942,561.075439 
      C221.804901,592.669983 232.889542,623.721558 235.886505,656.807068 
      C237.528046,674.929260 238.041809,693.021240 236.125473,711.088745 
      C233.663315,734.302429 228.079376,756.867920 220.703934,778.997375 
      C216.070633,792.899231 211.026505,806.639221 204.976135,820.001709 
      C202.237274,826.050598 204.640930,829.986755 211.224380,830.599182 
      C212.216553,830.691467 213.222946,830.652954 214.222412,830.641785 
      C229.674545,830.469666 244.630646,827.182190 259.157257,822.373352 
      C278.265167,816.048035 297.069214,808.811035 316.070312,802.155701 
      C350.310822,790.162659 385.034760,785.834839 420.907745,794.570801 
      C442.249481,799.768066 464.089172,802.233215 486.075745,802.573059 
      C510.252686,802.946838 534.166016,800.326538 557.923584,795.787598 
      C608.719604,786.082764 654.687195,765.450806 695.782959,734.304016 
      C746.750122,695.675598 782.895020,645.900330 805.225037,585.981445 
      C818.084045,551.476379 824.147156,515.703613 824.386597,479.079163 
      C824.510071,460.195374 822.352417,441.325256 818.809448,422.629791 
      C806.773621,359.119690 777.563049,304.698578 731.504028,259.715424 
      C677.962280,207.424286 613.008545,178.958206 538.785400,171.496796 
      C511.977112,168.801819 485.289978,171.008865 458.802246,175.699249 
      C411.962860,183.993408 369.315247,202.284042 330.532043,229.690826 
      C287.560181,260.057526 255.228470,299.415741 231.830231,347.227020 
    z"/>
  </g>

  <!-- LAYER 3: Eyes Layer -->
  <g class="ghost-layer ghost-eyes">
    <!-- Left Eye -->
    <path class="ghost-eye ghost-eye-left" id="ghost-eye-left" fill="#000000" opacity="1.000000" stroke="none" d="
    M445.338440,471.851562 
      C443.176758,493.788635 436.942841,513.715637 422.903229,530.550293 
      C414.712860,540.371216 404.428955,546.983215 391.426178,547.988098 
      C380.129303,548.861206 370.128235,544.991821 361.551147,537.658081 
      C346.242279,524.568481 338.807251,507.057800 334.925110,487.966980 
      C330.108337,464.279877 331.868622,440.935730 341.490295,418.566833 
      C348.688934,401.831055 359.017548,387.645721 377.318176,381.896362 
      C395.780701,376.096130 410.714722,383.333527 422.873901,396.788544 
      C435.662811,410.940399 441.511841,428.347931 444.441101,446.954803 
      C445.723877,455.103149 445.097168,463.233063 445.338440,471.851562 
    z"/>
    
    <!-- Right Eye -->
    <path class="ghost-eye ghost-eye-right" id="ghost-eye-right" fill="#000000" opacity="1.000000" stroke="none" d="
    M580.705505,471.768982 
      C579.774292,452.215668 582.605713,433.818390 590.797302,416.428589 
      C595.017090,407.470551 600.340088,399.277374 607.772888,392.579346 
      C627.716553,374.607117 653.145935,376.202209 670.873657,396.487671 
      C682.259460,409.516235 688.856201,424.818604 691.954407,441.620636 
      C696.671631,467.203156 693.889832,491.915649 682.163452,515.365479 
      C678.942444,521.806519 674.902405,527.726013 669.904602,532.915588 
      C649.577148,554.023315 621.761536,553.062683 602.886780,530.571594 
      C591.909119,517.490662 585.759705,502.182648 582.712219,485.533203 
      C581.906189,481.129486 581.375549,476.675323 580.705505,471.768982 
    z"/>
  </g>
</svg>

<svg xmlns="http://www.w3.org/2000/svg" width="1024" height="1024" viewBox="0 0 1024 1024"><defs><linearGradient id="a" x1="0%" x2="100%" y1="0%" y2="100%"><stop offset="0%" stop-color="#ff60e0" stop-opacity="1"/><stop offset="35%" stop-color="#ff82ca" stop-opacity="1"/><stop offset="65%" stop-color="#ff9a85" stop-opacity="1"/><stop offset="85%" stop-color="#ffb060" stop-opacity="1"/><stop offset="100%" stop-color="#ffcf40" stop-opacity="1"/></linearGradient></defs><path fill="url(#a)" d="M513.404 867.482c-12.765 1.426-25.072.712-37.394.384-29.547-.787-58.125-8.256-87.208-12.184-18.653-2.52-36.69 1.893-54.29 8.14-19.144 6.795-37.35 15.97-56.79 22.007-23.04 7.155-46.49 11.584-70.7 10.432-17.974-.856-35.031-4.943-48.666-17.695-11.147-10.426-16.827-23.683-18.731-38.718-2.36-18.633 2.859-35.856 9.31-52.952 7.57-20.065 15.661-39.97 19.915-61.13 5.582-27.768 4.816-55.429-.663-83.136-4.24-21.44-11.7-41.93-17.725-62.845-6.823-23.69-11.302-47.747-12.957-72.412-6.44-95.976 20.076-182.005 78.42-258.073 40.193-52.402 91.41-90.855 152.578-115.946 32.029-13.138 65.265-21.516 99.596-25.835 19.035-2.394 38.131-3.503 57.263-2.691 71.176 3.02 137.343 22.45 196.848 62.183 81.6 54.488 133.837 129.733 157.09 225.05 4.885 20.022 7.815 40.329 9.255 60.933 1.165 16.666 1.428 33.347.492 49.92-2.295 40.627-11.426 79.889-26.603 117.666-21.81 54.29-53.371 102.189-96.564 141.714-51.247 46.896-109.873 80.622-178.552 95.207-24.248 5.15-48.575 9.55-73.924 9.98M231.83 347.228c-21.537 48.45-32.846 98.844-29.693 152.164 1.243 21.01 4.874 41.535 10.635 61.684 9.033 31.595 20.118 62.647 23.115 95.732 1.641 18.122 2.155 36.214.238 54.282-2.462 23.213-8.046 45.779-15.421 67.908-4.633 13.902-9.677 27.642-15.728 41.005-2.739 6.049-.335 9.985 6.248 10.597.993.092 1.999.054 2.998.043 15.453-.172 30.409-3.46 44.935-8.269 19.108-6.325 37.912-13.562 56.913-20.217 34.24-11.993 68.965-16.321 104.838-7.585 21.341 5.197 43.181 7.662 65.168 8.002 24.177.374 48.09-2.246 71.848-6.785 50.796-9.705 96.763-30.337 137.859-61.484 50.967-38.628 87.112-88.404 109.442-148.323 12.859-34.505 18.922-70.277 19.162-106.902.123-18.884-2.035-37.754-5.578-56.45-12.035-63.51-41.246-117.93-87.305-162.914-53.542-52.29-118.495-80.757-192.719-88.218-26.808-2.695-53.495-.488-79.983 4.202-46.84 8.294-89.487 26.585-128.27 53.992-42.972 30.367-75.304 69.725-98.702 117.536"/><path d="M513.404 867.482c-12.765 1.426-25.072.712-37.394.384-29.547-.787-58.125-8.256-87.208-12.184-18.653-2.52-36.69 1.893-54.29 8.14-19.144 6.795-37.35 15.97-56.79 22.007-23.04 7.155-46.49 11.584-70.7 10.432-17.974-.856-35.031-4.943-48.666-17.695-11.147-10.426-16.827-23.683-18.731-38.718-2.36-18.633 2.859-35.856 9.31-52.952 7.57-20.065 15.661-39.97 19.915-61.13 5.582-27.768 4.816-55.429-.663-83.136-4.24-21.44-11.7-41.93-17.725-62.845-6.823-23.69-11.302-47.747-12.957-72.412-6.44-95.976 20.076-182.005 78.42-258.073 40.193-52.402 91.41-90.855 152.578-115.946 32.029-13.138 65.265-21.516 99.596-25.835 19.035-2.394 38.131-3.503 57.263-2.691 71.176 3.02 137.343 22.45 196.848 62.183 81.6 54.488 133.837 129.733 157.09 225.05 4.885 20.022 7.815 40.329 9.255 60.933 1.165 16.666 1.428 33.347.492 49.92-2.295 40.627-11.426 79.889-26.603 117.666-21.81 54.29-53.371 102.189-96.564 141.714-51.247 46.896-109.873 80.622-178.552 95.207-24.248 5.15-48.575 9.55-73.924 9.98M231.83 347.228c-21.537 48.45-32.846 98.844-29.693 152.164 1.243 21.01 4.874 41.535 10.635 61.684 9.033 31.595 20.118 62.647 23.115 95.732 1.641 18.122 2.155 36.214.238 54.282-2.462 23.213-8.046 45.779-15.421 67.908-4.633 13.902-9.677 27.642-15.728 41.005-2.739 6.049-.335 9.985 6.248 10.597.993.092 1.999.054 2.998.043 15.453-.172 30.409-3.46 44.935-8.269 19.108-6.325 37.912-13.562 56.913-20.217 34.24-11.993 68.965-16.321 104.838-7.585 21.341 5.197 43.181 7.662 65.168 8.002 24.177.374 48.09-2.246 71.848-6.785 50.796-9.705 96.763-30.337 137.859-61.484 50.967-38.628 87.112-88.404 109.442-148.323 12.859-34.505 18.922-70.277 19.162-106.902.123-18.884-2.035-37.754-5.578-56.45-12.035-63.51-41.246-117.93-87.305-162.914-53.542-52.29-118.495-80.757-192.719-88.218-26.808-2.695-53.495-.488-79.983 4.202-46.84 8.294-89.487 26.585-128.27 53.992-42.972 30.367-75.304 69.725-98.702 117.536"/><path d="M445.338 471.852c-2.161 21.937-8.395 41.864-22.435 58.698-8.19 9.821-18.474 16.433-31.477 17.438-11.297.873-21.298-2.996-29.875-10.33-15.309-13.09-22.744-30.6-26.626-49.691-4.817-23.687-3.056-47.031 6.565-69.4 7.199-16.736 17.528-30.921 35.828-36.67 18.463-5.8 33.397 1.437 45.556 14.892 12.789 14.151 18.638 31.559 21.567 50.166 1.283 8.148.656 16.278.897 24.897M580.706 471.769c-.932-19.553 1.9-37.95 10.091-55.34 4.22-8.958 9.543-17.152 16.976-23.85 19.944-17.972 45.373-16.377 63.1 3.909 11.386 13.028 17.983 28.33 21.081 45.133 4.718 25.582 1.936 50.295-9.79 73.744-3.222 6.442-7.262 12.361-12.26 17.55-20.327 21.108-48.142 20.148-67.017-2.343-10.978-13.081-17.127-28.39-20.175-45.039-.806-4.404-1.336-8.858-2.006-13.764"/></svg>
